X:6
T:Wär Gott nicht mit uns diese Zeit
C:Johann Nicolaus Hanff
M:C
L:1/8
Q:1/4=66
%%staves [1 (2 3) 4]
V:1 nm="Rückpos"
V:2 nm="Organo"
K:Am
V:1
%%MIDI program 53
A3B    c2c2    |d2e2    de/f/P ^c3/d/|d8    |z8		  |
V:2
%%MIDI program 73
z2E2-  E2AG    |F2E2    F2E2	     |F6  F2|E2CD   E3F/G/|
V:3
%%MIDI program 73
z2C2-  CB,A,2  |A,8		     |A,6 D2|C2A,B, C3D/E/|
V:4
%%MIDI program 73
z2A,2- A,G,F,E,|D,2^C,2 D,2A,,2      |D,,8  |z4	    z2A,2 |

